X: 1903
T: Uşşak Aranağme (Aksak)
C: ?
O: Turkey
F: http://compmusic.upf.edu/node/140
N: ussak--aranagme--aksak--1--
N: makam= ussak
N: form= aranagme
N: usul= aksak = 9/8
M: 9/8
L: 1/16
K: C _2/4B   
Q: 1/4=168
%%MIDI tuningsystem comma53
aggf feed dcde f6 | ef efag feed dcd6  | 
w:  ARANAĞME  |   | 
cedf egfa gfed dcBA G2 | AB cde2 dccB BAA4z2  | 
w:   |   | 
aggf feed dcde f6 | ef efag feed dcd6  | 
w:  ARANAĞME  |   | 
cedf egfa gfed dcBA G2 | AB cde2 dccB BAA4z2  | 
w:   |   | 
|


